X:533
T:Reel 533
L:1/8
M: 4/4
K: D Major
d3fagfa|gfecdBcB|ABAdfAdf|aeceBdAB|d2faa2af|gfedcedB|A2FAdfaf|geced3B:||:aff2f3d|gee2ceAc|BGG2Bdcd|B2ABAFDF|Add2fddA|BGG2BcdB|A2FADAFA|Bdefd3e:|.abc